X:1
T:River Crossing
C:Heifer Zephyr (original, MIT license)
M:4/4
L:1/8
Q:1/4=84
K:F
|: F2 A2 c2 f2 | f2 c2 A2 G2 | B2 d2 g2 d2 | B4 G4 |
   A2 c2 f2 c2 | A4 G4 | F2 G2 A2 G2 | F8 :|
|: c2 f2 c2 A2 | G2 d2 B2 G2 | F2 A2 c2 A2 | G6 z2 |
   B2 d2 g2 d2 | c4 A4 | G2 F2 G2 A2 | F8 :|
